src/icons/svg/login.svg

<?xml version="1.0" standalone="no"?><!DOCTYPE svg PUBLIC "-//W3C//DTD SVG 1.1//EN" "http://www.w3.org/Graphics/SVG/1.1/DTD/svg11.dtd"><svg t="1614406096126" class="icon" viewBox="0 0 1024 1024" version="1.1" xmlns="http://www.w3.org/2000/svg" p-id="8113" width="250" height="250" xmlns:xlink="http://www.w3.org/1999/xlink"><defs><style type="text/css"></style></defs><path d="M832 896H298.666667a104.533333 104.533333 0 0 1-106.666667-102.4v-101.973333h53.333333v102.826666A52.48 52.48 0 0 0 298.666667 845.653333h533.333333a52.48 52.48 0 0 0 53.333333-51.2V229.546667a52.48 52.48 0 0 0-53.333333-51.2H298.666667a52.48 52.48 0 0 0-53.333334 51.2v102.826666H192V229.546667A104.533333 104.533333 0 0 1 298.666667 128h533.333333A104.533333 104.533333 0 0 1 938.666667 229.546667v564.906666A104.533333 104.533333 0 0 1 832 896zM601.173333 352a25.6 25.6 0 0 1 0-36.693333 27.733333 27.733333 0 0 1 37.546667 0l184.32 177.066666a30.293333 30.293333 0 0 1 0 39.253334L640 708.693333a27.733333 27.733333 0 0 1-37.546667 0 25.173333 25.173333 0 0 1 0-36.266666l139.946667-134.826667H112.213333a25.6 25.6 0 1 1 0-51.2h628.906667z" p-id="8114"></path></svg>

<svg class="icon" viewBox="0 0 1024 1024" xmlns="http://www.w3.org/2000/svg" width="250" height="250"><defs><style/></defs><path d="M832 896H298.667A104.533 104.533 0 01192 793.6V691.627h53.333v102.826a52.48 52.48 0 0053.334 51.2H832a52.48 52.48 0 0053.333-51.2V229.547a52.48 52.48 0 00-53.333-51.2H298.667a52.48 52.48 0 00-53.334 51.2v102.826H192V229.547A104.533 104.533 0 01298.667 128H832a104.533 104.533 0 01106.667 101.547v564.906A104.533 104.533 0 01832 896zM601.173 352a25.6 25.6 0 010-36.693 27.733 27.733 0 0137.547 0l184.32 177.066a30.293 30.293 0 010 39.254L640 708.693a27.733 27.733 0 01-37.547 0 25.173 25.173 0 010-36.266L742.4 537.6H112.213a25.6 25.6 0 110-51.2H741.12z"/></svg>
